!!!ONB: MCCC : IJH0461_04 : Extracted Monophonic Melody
!!!COM: Haydn, Joseph
!!!OPR: String Quartet in G major
!!!OMV: 4
!!!SCT: Hob.III:29 ; Op.17 No.5
!!!ODT: 1771///
**kern
*thru
*k[f#]
*G:
*clefG
*M2/4
*MM152
8dd
=1
8cc
8b
8ee
8dd
=2
4dd
8r
8gg
=3
8gg
8ff#
8ff#
8ee
=4
8ee
8dd
8r
8dd
=5
8cc
8b
8ee
8dd
=6
4dd
8r
8cc
=7
8cc
8b
8b
8a
=8
8a
8g
8r
8g
=9
8g
8f#
8f#
8a
=10
8a
8g
8r
8g
=11
8cc
16b
16cc
8dd
8cc
=12
4cc
8b
8g
=13
8g
8f#
8f#
8a
=14
8a
8g
8r
8cc
=15
8aa
8cc
8cc
16b
16cc
=16
16bb
16aa
16gg
16ff#
16gg
16ff#
16ee
16dd
=17
16ee
16dd
16cc
16b
16cc
16b
16a
16g
=18
8a
4cc
8f#
=19
4g
4r
=20
2gg
=21
2gg
=22
2gg
=23
2gg
=24
2gg[
=25
4.gg]
8bb
=26
8dd
8cc
8aa
8cc
=27
8cc
8b
8r
8gg
=28
8b
8a
8ee
8g
=29
8g
8f#
8r
8a
=30
2dd
=31
8d
8fff#
8eee
8ddd
=32
8ddd
8ccc#
4ccc#[
=33
4ccc#]
16ccc#
16ddd
16eee
16fff#
=34
4ggg
8.eee
16ccc#
=35
4aa
8.gg
32ff#
32gg
=36
4ff#
8r
8aa
=37
8aaa
8aaa
8aaa
8aaa
=38
8aaa
8bb
8r
8bb
=39
8ggg
8ggg
8ggg
8ggg
=40
8ggg
8aa
8r
8aa
=41
8fff#
8fff#
8fff#
8fff#
=42
8fff#
8gg
8r
8gg
=43
8eee
8eee
8eee
8gg
=44
16ff#
16ddd
16fff#
16ddd
16fff#
16ddd
16fff#
16ddd
=45
16ff#
16ddd
16fff#
16ddd
16fff#
16ddd
16fff#
16ddd
=46
16ff
16ddd
16fff
16ddd
16fff
16ddd
16fff
16ddd
=47
16ff
16ddd
16fff
16ddd
16fff
16ddd
16fff
16ddd
=48
8fff
4ddd
8bb-[
=49
8bb-]
4aa
8gg#
=50
8aa
8a
8a
8a
=51
4.a
8a
=52
8b
8a
8cc#
8b
=53
8dd
8cc#
8ee
8dd
=54
8ff#
8ee
8gg
8gg
=55
4.gg
8ee
=56
16ff#
16ddd
16dd
16bb
16b
16gg
16g
16ee
=57
4a
4ee
=58
16ff#
16ddd
16dd
16bb
16b
16gg
16g
16ee
=59
4a
4ee
=60
4dd
8r
8a
=61
8g
8f#
8b
8a
=62
4a
8r
8aa
=63
8gg
8ff#
8bb
8aa
=64
4aa
8r
8ddd
=65
8ddd
8ccc#
8ccc#
8bb
=66
8bb
8aa
8r
8aa
=67
8gg
8ff#
8ddd
8ccc
=68
4ccc
8r
8aa
=69
8bb
8aa
8ddd
8ccc
=70
4bb
8r
8bb
=71
4ddd
8r
8ff
=72
4ee
8r
8dd
=73
4bb
8r
8dd
=74
4cc
8r
8ee
=75
4ccc
8r
8ee
=76
4dd#
8r
8b
=77
8bb
8bb
8bb
8bb
=78
8bb
8cc
8r
8cc
=79
8aa
8aa
8aa
8aa
=80
8aa
8b
8r
8b
=81
8gg
8gg
8gg
8gg
=82
8gg
8a
8r
8a
=83
8ff#
8ff#
8ff#
8a
=84
16g
16ee
16gg
16ee
16gg
16ee
16gg
16ee
=85
16b
16ee
16gg#
16ee
16gg#
16ee
16gg#
16ee
=86
16a
16ee
16aa
16ee
16aa
16ee
16aa
16ee
=87
16a
16dd
16ff#
16dd
16ff#
16dd
16ff#
16dd
=88
16b
16dd
16gg
16dd
16gg
16dd
16gg
16dd
=89
16d
16ff#
16aa
16ff#
16aa
16ff#
16aa
16ff#
=90
16d
16gg
16bb
16gg
16bb
16gg
16bb
16gg
=91
16d
16ee
16ccc#
16ee
16ccc#
16ee
16ccc#
16ee
=92
4ddd
8.d
16d
=93
4d
8r
8dd
=94
8cc
8b
8ee
8dd
=95
4dd
8r
8gg
=96
8gg
8ff#
8ff#
8ee
=97
8ee
8dd
8r
8dd
=98
8cc
8b
8ee
8dd
=99
4dd
8r
8cc
=100
8cc
8b
8b
8a
=101
8a
8g
8r
8g
=102
8g
8f#
8f#
8a
=103
8a
8g
8r
8b
=104
8b
8a
8a
8cc
=105
8cc
8b
8r
8dd
=106
8ddd
8ddd
8ddd
8ddd
=107
8ddd
8ee
8r
8ee
=108
8ccc
8ccc
8ccc
8ccc
=109
8ccc
8dd
8r
8dd
=110
8bb
8bb
8bb
8bb
=111
8bb
8cc
8r
8cc
=112
8aa
8aa
8aa
8cc
=113
16b
16gg
16bb
16gg
16bb
16gg
16bb
16gg
=114
16b
16gg
16bb
16gg
16bb
16gg
16bb
16gg
=115
16b-
16gg
16bb-
16gg
16bb-
16gg
16bb-
16gg
=116
16b-
16gg
16bb-
16gg
16bb-
16gg
16bb-
16gg
=117
8bb-
4gg
8ee-[
=118
8ee-]
4dd
8cc#
=119
8dd
8d
8d
8d
=120
4.d
8d
=121
8e
8d
8f#
8e
=122
8g
8f#
8a
8g
=123
8b
8a
8cc
8cc
=124
4.cc
8a
=125
16b
16gg
16g
16ee
16e
16cc
16c
16a
=126
4d
4a
=127
16b
16gg
16g
16ee
16e
16cc
16c
16a
=128
4d
4a
=129
4g
8r
8dd
=130
8cc
8b
8ee
8dd
=131
4dd
8r
8b
=132
8a
8g
8cc
8b
=133
4b
8r
8d
=134
8c
8B
8e
8d
=135
4d
4r
==
*-
